src/assets/navlogo.svg

<svg fill="none" height="361" viewBox="0 0 2067 361" width="2067" xmlns="http://www.w3.org/2000/svg">
    <path d="m.183595 5.99999h112.500405c47 0 81.833 15.00001 104.5 45.00001 22.666 30 34 73.167 34 129.5s-11.334 99.5-34 129.5c-22.667 30-57.5 45-104.5 45h-112.500405zm107.500405 290.00001c22.333 0 38.666-7.167 49-21.5 10.333-14.333 15.5-35.167 15.5-62.5v-63.5c0-27-5.167-47.667-15.5-62-10.334-14.3333-26.667-21.5-49-21.5h-33.5004v231zm310.304 65c-46.666 0-81.166-15.833-103.5-47.5-22-31.667-33-76-33-133s11-101.3333 33-133c22.334-31.6667 56.834-47.50001907 103.5-47.50001907 46.667 0 81 15.83331907 103 47.50001907 22.334 31.6667 33.5 76 33.5 133s-11.166 101.333-33.5 133c-22 31.667-56.333 47.5-103 47.5zm0-60.5c21.334 0 36-7.833 44-23.5 8.334-16 12.5-38.167 12.5-66.5v-60.5c0-28-4.166-49.833-12.5-65.5-8-16-22.666-24-44-24-21.333 0-36.166 8-44.5 24-8 15.667-12 37.5-12 65.5v61c0 28 4 50 12 66 8.334 15.667 23.167 23.5 44.5 23.5zm252.305-294.50001v221.00001c0 11 .333 21.167 1 30.5 1 9 3 16.667 6 23 3.333 6.333 8.167 11.333 14.5 15 6.333 3.333 15 5 26 5s19.667-1.667 26-5c6.333-3.667 11-8.667 14-15 3.333-6.333 5.333-14 6-23 1-9.333 1.5-19.5 1.5-30.5v-221.00001h75v211.00001c0 24-1.667 45-5 63-3 18-9 33-18 45s-21.5 21-37.5 27-36.667 9-62 9-46-3-62-9-28.5-15-37.5-27-15.167-27-18.5-45c-3-18-4.5-39-4.5-63v-211.00001zm235.805 0h122.502c34.33 0 60.5 8.33331 78.5 25.00001 18.33 16.6666 27.5 39.3333 27.5 68 0 20-5 36-15 48-9.67 11.667-23.67 20.167-42 25.5v3c21.66 5.333 38.33 14.667 50 28 12 13.333 18 31.833 18 55.5 0 29.333-9.34 52.667-28 70-18.34 17.333-44.17 26-77.5 26h-134.002zm111.002 296.50001c18 0 31.16-3 39.5-9 8.33-6 12.5-17 12.5-33v-14.5c0-16-4.17-27-12.5-33-8.34-6-21.5-9-39.5-9h-38.002v98.5zm-9.5-148.5c17.66 0 30.5-2.833 38.5-8.5 8-6 12-16.667 12-32v-15c0-15.3333-4-25.8333-12-31.5s-20.84-8.5-38.5-8.5h-28.502v95.5zm205.8 201v-349.00001h75.5v287.50001h150v61.5zm293.81 0v-349.00001h223v61.50001h-148v80h143v61.5h-143v84.5h148v61.5zm278.3-216h42.5v-97l-38 19.5-16-29 51-26.50001h47v133.00001h37.5v34.5h-124zm229.5-133.00001h51.5l-86.5 150.00001h-51.5zm-161 199.00001h51.5l-86.5 150h-51.5zm139 153c-22 0-39-6.167-51-18.5s-18-28.5-18-48.5c0-11.333 1.84-22.167 5.5-32.5 3.67-10.333 8.5-19.833 14.5-28.5 6-9 12.84-17 20.5-24 7.67-7.333 15.67-13.5 24-18.5h62c-24 15.667-43.33 30-58 43-14.66 13-23.5 27-26.5 42l3 1c1.34-2.667 3-5.5 5-8.5 2.34-3.333 5.17-6.333 8.5-9 3.67-2.667 7.84-4.833 12.5-6.5 4.67-2 10.34-3 17-3 14.34 0 26.34 4.667 36 14 10 9.333 15 22 15 38 0 17.333-6.33 31.667-19 43-12.33 11-29.33 16.5-51 16.5zm1.5-31c8.67 0 14.67-2.167 18-6.5 3.67-4.333 5.5-9.833 5.5-16.5v-5c0-6.667-1.83-12.167-5.5-16.5-3.33-4.333-9.33-6.5-18-6.5-8.66 0-14.83 2.167-18.5 6.5-3.33 4.333-5 9.833-5 16.5v5c0 6.667 1.67 12.167 5 16.5 3.67 4.333 9.84 6.5 18.5 6.5z"
          fill="#fff"/>
</svg>

<svg width="2067" height="361" viewBox="0 0 2067 361" fill="none" xmlns="http://www.w3.org/2000/svg">
    <path d="M0.183595 5.99999H112.684C159.684 5.99999 194.517 21 217.184 51C239.85 81 251.184 124.167 251.184 180.5C251.184 236.833 239.85 280 217.184 310C194.517 340 159.684 355 112.684 355H0.183595V5.99999ZM107.684 296C130.017 296 146.35 288.833 156.684 274.5C167.017 260.167 172.184 239.333 172.184 212V148.5C172.184 121.5 167.017 100.833 156.684 86.5C146.35 72.1667 130.017 65 107.684 65H74.1836V296H107.684ZM417.988 361C371.322 361 336.822 345.167 314.488 313.5C292.488 281.833 281.488 237.5 281.488 180.5C281.488 123.5 292.488 79.1667 314.488 47.5C336.822 15.8333 371.322 -1.90735e-05 417.988 -1.90735e-05C464.655 -1.90735e-05 498.988 15.8333 520.988 47.5C543.322 79.1667 554.488 123.5 554.488 180.5C554.488 237.5 543.322 281.833 520.988 313.5C498.988 345.167 464.655 361 417.988 361ZM417.988 300.5C439.322 300.5 453.988 292.667 461.988 277C470.322 261 474.488 238.833 474.488 210.5V150C474.488 122 470.322 100.167 461.988 84.5C453.988 68.5 439.322 60.5 417.988 60.5C396.655 60.5 381.822 68.5 373.488 84.5C365.488 100.167 361.488 122 361.488 150V211C361.488 239 365.488 261 373.488 277C381.822 292.667 396.655 300.5 417.988 300.5ZM670.293 5.99999V227C670.293 238 670.626 248.167 671.293 257.5C672.293 266.5 674.293 274.167 677.293 280.5C680.626 286.833 685.46 291.833 691.793 295.5C698.126 298.833 706.793 300.5 717.793 300.5C728.793 300.5 737.46 298.833 743.793 295.5C750.126 291.833 754.793 286.833 757.793 280.5C761.126 274.167 763.126 266.5 763.793 257.5C764.793 248.167 765.293 238 765.293 227V5.99999H840.293V217C840.293 241 838.626 262 835.293 280C832.293 298 826.293 313 817.293 325C808.293 337 795.793 346 779.793 352C763.793 358 743.126 361 717.793 361C692.46 361 671.793 358 655.793 352C639.793 346 627.293 337 618.293 325C609.293 313 603.126 298 599.793 280C596.793 262 595.293 241 595.293 217V5.99999H670.293ZM906.098 5.99999H1028.6C1062.93 5.99999 1089.1 14.3333 1107.1 31C1125.43 47.6666 1134.6 70.3333 1134.6 99C1134.6 119 1129.6 135 1119.6 147C1109.93 158.667 1095.93 167.167 1077.6 172.5V175.5C1099.26 180.833 1115.93 190.167 1127.6 203.5C1139.6 216.833 1145.6 235.333 1145.6 259C1145.6 288.333 1136.26 311.667 1117.6 329C1099.26 346.333 1073.43 355 1040.1 355H906.098V5.99999ZM1017.1 302.5C1035.1 302.5 1048.26 299.5 1056.6 293.5C1064.93 287.5 1069.1 276.5 1069.1 260.5V246C1069.1 230 1064.93 219 1056.6 213C1048.26 207 1035.1 204 1017.1 204H979.098V302.5H1017.1ZM1007.6 154C1025.26 154 1038.1 151.167 1046.1 145.5C1054.1 139.5 1058.1 128.833 1058.1 113.5V98.5C1058.1 83.1667 1054.1 72.6667 1046.1 67C1038.1 61.3333 1025.26 58.5 1007.6 58.5H979.098V154H1007.6ZM1213.4 355V5.99999H1288.9V293.5H1438.9V355H1213.4ZM1507.21 355V5.99999H1730.21V67.5H1582.21V147.5H1725.21V209H1582.21V293.5H1730.21V355H1507.21ZM1785.51 139H1828.01V42L1790.01 61.5L1774.01 32.5L1825.01 5.99999H1872.01V139H1909.51V173.5H1785.51V139ZM2015.01 5.99999H2066.51L1980.01 156H1928.51L2015.01 5.99999ZM1854.01 205H1905.51L1819.01 355H1767.51L1854.01 205ZM1993.01 358C1971.01 358 1954.01 351.833 1942.01 339.5C1930.01 327.167 1924.01 311 1924.01 291C1924.01 279.667 1925.85 268.833 1929.51 258.5C1933.18 248.167 1938.01 238.667 1944.01 230C1950.01 221 1956.85 213 1964.51 206C1972.18 198.667 1980.18 192.5 1988.51 187.5H2050.51C2026.51 203.167 2007.18 217.5 1992.51 230.5C1977.85 243.5 1969.01 257.5 1966.01 272.5L1969.01 273.5C1970.35 270.833 1972.01 268 1974.01 265C1976.35 261.667 1979.18 258.667 1982.51 256C1986.18 253.333 1990.35 251.167 1995.01 249.5C1999.68 247.5 2005.35 246.5 2012.01 246.5C2026.35 246.5 2038.35 251.167 2048.01 260.5C2058.01 269.833 2063.01 282.5 2063.01 298.5C2063.01 315.833 2056.68 330.167 2044.01 341.5C2031.68 352.5 2014.68 358 1993.01 358ZM1994.51 327C2003.18 327 2009.18 324.833 2012.51 320.5C2016.18 316.167 2018.01 310.667 2018.01 304V299C2018.01 292.333 2016.18 286.833 2012.51 282.5C2009.18 278.167 2003.18 276 1994.51 276C1985.85 276 1979.68 278.167 1976.01 282.5C1972.68 286.833 1971.01 292.333 1971.01 299V304C1971.01 310.667 1972.68 316.167 1976.01 320.5C1979.68 324.833 1985.85 327 1994.51 327Z"
          fill="white"/>
</svg>
